public/icon-happy.svg

<svg width="24" height="24" fill="none" xmlns="http://www.w3.org/2000/svg"><path fill-rule="evenodd" clip-rule="evenodd" d="M11.99 2C6.47 2 2 6.48 2 12s4.47 10 9.99 10C17.52 22 22 17.52 22 12S17.52 2 11.99 2zM12 20c-4.42 0-8-3.58-8-8s3.58-8 8-8 8 3.58 8 8-3.58 8-8 8zm5-10.5c0 .83-.67 1.5-1.5 1.5S14 10.33 14 9.5 14.67 8 15.5 8s1.5.67 1.5 1.5zM8.5 11c.83 0 1.5-.67 1.5-1.5S9.33 8 8.5 8 7 8.67 7 9.5 7.67 11 8.5 11zm8.61 3c-.8 2.04-2.78 3.5-5.11 3.5-2.33 0-4.31-1.46-5.11-3.5h10.22z" fill="#000"/></svg>

<svg width="24" height="24" viewBox="0 0 24 24" fill="none" xmlns="http://www.w3.org/2000/svg">
<g id="insert_emoticon_24px">
<path id="icon/editor/insert_emoticon_24px" fill-rule="evenodd" clip-rule="evenodd" d="M11.99 2C6.47 2 2 6.48 2 12C2 17.52 6.47 22 11.99 22C17.52 22 22 17.52 22 12C22 6.48 17.52 2 11.99 2ZM12 20C7.58 20 4 16.42 4 12C4 7.58 7.58 4 12 4C16.42 4 20 7.58 20 12C20 16.42 16.42 20 12 20ZM17 9.5C17 10.33 16.33 11 15.5 11C14.67 11 14 10.33 14 9.5C14 8.67 14.67 8 15.5 8C16.33 8 17 8.67 17 9.5ZM8.5 11C9.33 11 10 10.33 10 9.5C10 8.67 9.33 8 8.5 8C7.67 8 7 8.67 7 9.5C7 10.33 7.67 11 8.5 11ZM17.11 14C16.31 16.04 14.33 17.5 12 17.5C9.67 17.5 7.69 16.04 6.89 14H17.11Z" fill="black"/>
</g>
</svg>
